;FLAVOR:Marlin
;TIME:9282
;Filament used: 6.9391m
;Layer height: 0.2
;MINX:72.5
;MINY:25.5
;MINZ:0.2
;MAXX:137.5
;MAXY:184.5
;MAXZ:7.075
;Generated with Cura_SteamEngine 5.2.1
M82 ;absolute extrusion mode
;Profil Homepage: https://github.com/NilsRo/Cura_Anycubic_MegaS_Profile

;Slicer Information - (Support for OctoPrint Slicer Estimator)
;Slicer info:material_guid;0ff92885-617b-4144-a03c-9989872454bc
;Slicer info:material_id;generic_pla_175
;Slicer info:material_brand;Generic
;Slicer info:material_name;PLA
;Slicer info:filament_cost;[0.0]
;Slicer info:material_bed_temperature;60
;Slicer info:material_bed_temperature_layer_0;60
;Slicer info:material_print_temperature;200
;Slicer info:material_print_temperature_layer_0;205
;Slicer info:material_flow;100
;Slicer info:layer_height;0.2
;Slicer info:machine_nozzle_size;0.4
;Slicer info:wall_thickness;1.2000000000000002
;Slicer info:speed_print;50.0
;Slicer info:speed_topbottom;25.0
;Slicer info:travel_speed;100.0
;Slicer info:support;0
;Slicer info:retraction_speed;30
;Slicer info:retraction_amount;6
;Slicer info:layer_height;0.2
;Slicer info:infill_pattern;zigzag
;Slicer info:infill_sparse_density;25
;Slicer info:cool_fan_enabled;True
;Slicer info:cool_fan_speed;100
;Slicer info:sliced_at;Wed 07-12-2022 13:44:44
G21                                        ; metric values 
G90                                        ; absolute positioning 
M82                                        ; set extruder to absolute mode 
M107                                       ; start with the fan off 
M140 S60   ; Start heating the bed 
G4 S60                                     ; wait 1 minute 
M104 S205 ; start heating the hot end 
M190 S60   ; wait for bed 
M109 S205 ; wait for hotend 
M300 S1000 P500                            ; BEEP heating done 
G28 X0 Y10 Z0                              ; move X/Y to min endstops 
M420 S1                                    ; Enable leveling 
M420 Z2.0                                  ; Set leveling fading height to 2 mm 
G0 Z0.15                                   ; lift nozzle a bit 
G92 E0                                     ; zero the extruded length 
G1 X50 E20 F500                            ; Extrude 20mm of filament in a 5cm line. 
G92 E0                                     ; zero the extruded length again 
G1 E-2 F500                                ; Retract a little 
G1 X50 F500                                ; wipe away from the filament line
G1 X100 F9000                              ; Quickly wipe away from the filament line
G92 E0
G92 E0
G1 F1800 E-6
;LAYER_COUNT:35
;LAYER:0
M106 S76.5
M205 X10 Y10
G1 F480 Z0.275
G0 F6000 X73.434 Y31.784 Z0.275
M205 X8 Y8
;TYPE:SKIRT
G1 F480 Z0.2
G1 F1800 E0
G1 F1200 X73.782 Y31.16 E0.02376
G1 X74.178 Y30.547 E0.04804
G1 X74.934 Y29.431 E0.09287
G1 X75.341 Y28.901 E0.1151
G1 X75.809 Y28.423 E0.13735
G1 X76.394 Y27.96 E0.16216
G1 X77.08 Y27.489 E0.18984
G1 X78.123 Y26.806 E0.2313
G1 X78.704 Y26.474 E0.25356
G1 X79.32 Y26.213 E0.27581
G1 X79.991 Y26.021 E0.29902
G1 X80.538 Y25.901 E0.31765
G1 X81.417 Y25.726 E0.34746
G1 X82.103 Y25.601 E0.37065
G1 X83.022 Y25.511 E0.40136
G1 X83.767 Y25.5 E0.42614
G1 X90.873 Y25.501 E0.66249
G1 X91.807 Y25.514 E0.69356
G1 X92.631 Y25.594 E0.72109
G1 X95.355 Y25.826 E0.81202
G1 X97.999 Y25.975 E0.9001
G1 X100.684 Y26.05 E0.98944
G1 X103.337 Y26.05 E1.07768
G1 X106.027 Y25.973 E1.16719
G1 X108.668 Y25.823 E1.25517
G1 X112.214 Y25.514 E1.37356
G1 X112.83 Y25.5 E1.39405
G1 X126.28 Y25.501 E1.8414
G1 X126.99 Y25.512 E1.86502
G1 X127.906 Y25.601 E1.89562
G1 X128.527 Y25.714 E1.91662
G1 X129.948 Y26.008 E1.96488
G1 X130.594 Y26.183 E1.98714
G1 X131.214 Y26.433 E2.00938
G1 X131.835 Y26.779 E2.03302
G1 X132.404 Y27.145 E2.05552
G1 X132.99 Y27.536 E2.07895
G1 X133.607 Y27.961 E2.10387
G1 X134.134 Y28.373 E2.12612
G1 X134.608 Y28.845 E2.14837
G1 X135.042 Y29.397 E2.17172
G1 X135.51 Y30.078 E2.19921
G1 X136.193 Y31.12 E2.24065
G1 X136.525 Y31.701 E2.2629
G1 X136.786 Y32.317 E2.28515
G1 X136.981 Y32.999 E2.30875
G1 X137.118 Y33.632 E2.33029
G1 X137.266 Y34.375 E2.35549
G1 X137.397 Y35.085 E2.3795
G1 X137.489 Y36.017 E2.41065
G1 X137.5 Y36.767 E2.4356
G1 X137.499 Y76.885 E3.76993
G1 X137.481 Y77.853 E3.80213
G1 X137.326 Y80.575 E3.89281
G1 X137.249 Y83.261 E3.98218
G1 X137.249 Y85.915 E4.07045
G1 X137.324 Y88.606 E4.15999
G1 X137.408 Y90.102 E4.20983
G1 X137.408 Y90.224 E4.21389
G1 X137.481 Y91.496 E4.25626
G1 X137.5 Y92.148 E4.27796
G1 X137.499 Y173.28 E6.97642
G1 X137.488 Y173.99 E7.00004
G1 X137.399 Y174.906 E7.03065
G1 X137.29 Y175.505 E7.0509
G1 X137.125 Y176.331 E7.07891
G1 X136.985 Y176.983 E7.10109
G1 X136.806 Y177.627 E7.12332
G1 X136.551 Y178.246 E7.14559
G1 X136.225 Y178.828 E7.16778
G1 X135.835 Y179.434 E7.19174
G1 X135.067 Y180.568 E7.2373
G1 X134.659 Y181.099 E7.25957
G1 X134.191 Y181.577 E7.28182
G1 X133.606 Y182.04 E7.30663
G1 X132.92 Y182.511 E7.33431
G1 X131.877 Y183.194 E7.37578
G1 X131.296 Y183.526 E7.39803
G1 X130.68 Y183.787 E7.42028
G1 X130.009 Y183.979 E7.4435
G1 X129.462 Y184.099 E7.46212
G1 X128.579 Y184.275 E7.49207
G1 X127.89 Y184.4 E7.51536
G1 X126.975 Y184.489 E7.54594
G1 X126.233 Y184.5 E7.57062
G1 X113.127 Y184.499 E8.00653
G1 X112.193 Y184.486 E8.03759
G1 X111.369 Y184.406 E8.06513
G1 X108.645 Y184.174 E8.15606
G1 X106.002 Y184.025 E8.2441
G1 X103.316 Y183.95 E8.33348
G1 X100.662 Y183.95 E8.42175
G1 X97.973 Y184.027 E8.51122
G1 X95.331 Y184.177 E8.59924
G1 X91.789 Y184.486 E8.71749
G1 X91.17 Y184.5 E8.73808
G1 X83.72 Y184.499 E8.98587
G1 X83.01 Y184.488 E9.00949
G1 X82.094 Y184.399 E9.0401
G1 X81.473 Y184.286 E9.06109
G1 X80.052 Y183.992 E9.10936
G1 X79.406 Y183.817 E9.13162
G1 X78.786 Y183.567 E9.15385
G1 X78.165 Y183.221 E9.1775
G1 X77.596 Y182.855 E9.2
G1 X76.99 Y182.45 E9.22424
G1 X76.391 Y182.037 E9.24844
G1 X75.864 Y181.625 E9.27069
G1 X75.39 Y181.153 E9.29294
G1 X74.958 Y180.603 E9.3162
G1 X74.488 Y179.919 E9.3438
G1 X73.804 Y178.874 E9.38534
G1 X73.472 Y178.293 E9.4076
G1 X73.211 Y177.677 E9.42985
G1 X73.018 Y176.999 E9.4533
G1 X72.896 Y176.439 E9.47236
G1 X72.727 Y175.59 E9.50115
G1 X72.602 Y174.909 E9.52418
G1 X72.511 Y173.982 E9.55516
G1 X72.5 Y173.233 E9.58007
G1 X72.501 Y92.441 E12.26723
G1 X72.52 Y91.487 E12.29896
G1 X72.674 Y88.779 E12.38918
G1 X72.751 Y86.092 E12.47858
G1 X72.751 Y83.438 E12.56686
G1 X72.676 Y80.746 E12.65643
G1 X72.592 Y79.251 E12.70623
G1 X72.592 Y79.129 E12.71029
G1 X72.502 Y77.564 E12.76243
G1 X72.501 Y36.72 E14.1209
G1 X72.512 Y36.01 E14.14452
G1 X72.602 Y35.092 E14.1752
G1 X72.746 Y34.31 E14.20165
G1 X73.008 Y33.05 E14.24445
G1 X73.183 Y32.404 E14.26671
G1 X73.434 Y31.784 E14.28896
M205 X10 Y10
G0 F6000 X73.816 Y31.914
M205 X8 Y8
G1 F1200 X74.118 Y31.376 E14.30948
G1 X74.441 Y30.874 E14.32933
G1 X75.265 Y29.656 E14.37824
G1 X75.659 Y29.145 E14.3997
G1 X76.113 Y28.688 E14.42113
G1 X76.621 Y28.289 E14.44261
G1 X77.299 Y27.824 E14.46996
G1 X78.342 Y27.141 E14.51143
G1 X78.902 Y26.822 E14.53286
G1 X79.498 Y26.574 E14.55433
G1 X80.077 Y26.412 E14.57433
G1 X80.723 Y26.271 E14.59632
G1 X81.489 Y26.119 E14.62229
G1 X82.175 Y25.994 E14.64549
G1 X83.028 Y25.911 E14.67399
G1 X83.767 Y25.9 E14.69857
G1 X90.793 Y25.9 E14.93226
G1 X91.787 Y25.914 E14.96532
G1 X92.632 Y25.996 E14.99356
G1 X95.3 Y26.223 E15.08262
G1 X97.999 Y26.375 E15.17253
G1 X100.673 Y26.45 E15.2615
G1 X103.348 Y26.45 E15.35047
G1 X106.027 Y26.373 E15.43961
G1 X108.724 Y26.22 E15.52946
G1 X111.436 Y25.989 E15.61999
G1 X112.201 Y25.915 E15.64555
G1 X112.83 Y25.9 E15.66648
G1 X126.274 Y25.901 E16.11363
G1 X126.984 Y25.912 E16.13725
G1 X127.834 Y25.995 E16.16565
G1 X128.455 Y26.108 E16.18664
G1 X129.867 Y26.4 E16.2346
G1 X130.489 Y26.57 E16.25605
G1 X131.085 Y26.815 E16.27748
G1 X131.619 Y27.115 E16.29785
G1 X132.105 Y27.427 E16.31706
G1 X132.763 Y27.866 E16.34337
G1 X133.38 Y28.291 E16.36829
G1 X133.887 Y28.689 E16.38973
G1 X134.341 Y29.146 E16.41115
G1 X134.713 Y29.624 E16.4313
G1 X135.175 Y30.297 E16.45845
G1 X135.858 Y31.339 E16.49989
G1 X136.177 Y31.899 E16.52132
G1 X136.425 Y32.495 E16.54279
G1 X136.59 Y33.084 E16.56314
G1 X136.726 Y33.711 E16.58448
G1 X136.873 Y34.447 E16.60944
G1 X137.004 Y35.157 E16.63345
G1 X137.089 Y36.023 E16.6624
G1 X137.1 Y36.767 E16.68714
G1 X137.1 Y76.88 E18.02131
G1 X137.082 Y77.831 E18.05294
G1 X136.926 Y80.577 E18.14442
G1 X136.849 Y83.25 E18.23336
G1 X136.849 Y85.926 E18.32237
G1 X136.924 Y88.603 E18.41144
G1 X137.009 Y90.124 E18.46211
G1 X137.008 Y90.257 E18.46653
G1 X137.1 Y91.872 E18.52033
G1 X137.099 Y173.274 E21.22778
G1 X137.088 Y173.984 E21.25139
G1 X137.005 Y174.834 E21.2798
G1 X136.88 Y175.517 E21.30289
G1 X136.594 Y176.899 E21.34983
G1 X136.42 Y177.519 E21.37125
G1 X136.17 Y178.114 E21.39272
G1 X135.889 Y178.612 E21.41173
G1 X135.504 Y179.21 E21.43539
G1 X134.736 Y180.344 E21.48094
G1 X134.342 Y180.854 E21.50238
G1 X133.888 Y181.312 E21.52383
G1 X133.379 Y181.711 E21.54534
G1 X132.701 Y182.176 E21.57268
G1 X131.658 Y182.859 E21.61415
G1 X131.098 Y183.178 E21.63558
G1 X130.502 Y183.426 E21.65705
G1 X129.923 Y183.588 E21.67705
G1 X129.277 Y183.729 E21.69904
G1 X128.594 Y183.865 E21.72221
G1 X127.818 Y184.006 E21.74844
G1 X126.969 Y184.089 E21.77681
G1 X126.233 Y184.1 E21.80129
G1 X113.133 Y184.099 E22.237
G1 X112.213 Y184.086 E22.2676
G1 X111.368 Y184.004 E22.29584
G1 X108.7 Y183.777 E22.3849
G1 X106.002 Y183.625 E22.47478
G1 X103.327 Y183.55 E22.56378
G1 X100.651 Y183.55 E22.65279
G1 X97.973 Y183.627 E22.74189
G1 X95.275 Y183.78 E22.83177
G1 X91.988 Y184.067 E22.94152
G1 X91.17 Y184.1 E22.96875
G1 X83.726 Y184.099 E23.21633
G1 X83.016 Y184.088 E23.23995
G1 X82.166 Y184.005 E23.26836
G1 X81.545 Y183.892 E23.28935
G1 X80.133 Y183.6 E23.33731
G1 X79.511 Y183.43 E23.35875
G1 X78.915 Y183.185 E23.38019
G1 X78.381 Y182.885 E23.40056
G1 X77.895 Y182.573 E23.41977
G1 X77.217 Y182.121 E23.44687
G1 X76.618 Y181.708 E23.47107
G1 X76.111 Y181.31 E23.49251
G1 X75.657 Y180.852 E23.51396
G1 X75.287 Y180.376 E23.53401
G1 X74.823 Y179.7 E23.56128
G1 X74.139 Y178.655 E23.60282
G1 X73.82 Y178.095 E23.62425
G1 X73.573 Y177.499 E23.64571
G1 X73.409 Y176.914 E23.66592
G1 X73.268 Y176.262 E23.68811
G1 X73.12 Y175.518 E23.71334
G1 X72.995 Y174.837 E23.73637
G1 X72.911 Y173.976 E23.76514
G1 X72.9 Y173.233 E23.78985
G1 X72.901 Y92.447 E26.47681
G1 X72.919 Y91.51 E26.50798
G1 X73.074 Y88.778 E26.59899
G1 X73.151 Y86.103 E26.688
G1 X73.151 Y83.427 E26.777
G1 X73.076 Y80.749 E26.86611
G1 X72.991 Y79.229 E26.91674
G1 X72.992 Y79.096 E26.92117
G1 X72.9 Y77.474 E26.9752
G1 X72.901 Y36.726 E28.33048
G1 X72.912 Y36.016 E28.3541
G1 X72.995 Y35.164 E28.38257
G1 X73.113 Y34.517 E28.40445
G1 X73.4 Y33.131 E28.45152
G1 X73.57 Y32.51 E28.47294
G1 X73.816 Y31.914 E28.49438
M205 X10 Y10
G1 F1800 E22.49438
G1 F480 Z0.275
;MESH:case_PICO_GMG12864-06D-ver-2_07-12-22.stl
G0 F6000 X88.008 Y53.379 Z0.275
M205 X8 Y8
;TYPE:WALL-INNER
G1 F480 Z0.2
G1 F1800 E28.49438
G1 F1200 X88.229 Y49.876 E28.61113
G1 X89.313 Y46.536 E28.72792
G1 X91.185 Y43.587 E28.8441
G1 X93.766 Y41.16 E28.96193
G1 X96.834 Y39.472 E29.0784
G1 X100.239 Y38.602 E29.19529
G1 X103.744 Y38.602 E29.31187
G1 X107.17 Y39.473 E29.42944
G1 X110.235 Y41.161 E29.54582
G1 X112.805 Y43.576 E29.66312
G1 X114.68 Y46.526 E29.77937
G1 X115.773 Y49.881 E29.89674
G1 X115.99 Y53.365 E30.01284
G1 X115.33 Y56.83 E30.13016
G1 X113.831 Y60.012 E30.24715
G1 X111.61 Y62.703 E30.3632
G1 X108.762 Y64.776 E30.48036
G1 X105.491 Y66.07 E30.59735
G1 X102 Y66.508 E30.71438
G1 X98.511 Y66.071 E30.83133
G1 X95.235 Y64.774 E30.94852
G1 X92.389 Y62.701 E31.06562
G1 X90.159 Y60.002 E31.18207
G1 X88.72 Y56.943 E31.29451
G1 X88.674 Y56.827 E31.29866
G1 X88.642 Y56.705 E31.30285
G1 X88.008 Y53.379 E31.41547
M205 X10 Y10
G0 F6000 X88.411 Y53.357
M205 X8 Y8
G1 F1200 X88.63 Y49.952 E31.52895
G1 X89.683 Y46.709 E31.64236
G1 X91.501 Y43.836 E31.75544
G1 X94 Y41.488 E31.86949
G1 X96.984 Y39.847 E31.98275
G1 X100.284 Y39.002 E32.09605
G1 X103.692 Y39.002 E32.2094
G1 X107.021 Y39.848 E32.32365
G1 X110.001 Y41.489 E32.4368
G1 X112.494 Y43.83 E32.55054
G1 X114.325 Y46.716 E32.66422
G1 X115.377 Y49.958 E32.77758
G1 X115.586 Y53.366 E32.89115
G1 X114.951 Y56.698 E33.00396
G1 X113.494 Y59.792 E33.11771
G1 X111.323 Y62.418 E33.23103
G1 X108.566 Y64.419 E33.34434
G1 X105.39 Y65.68 E33.45799
G1 X102 Y66.104 E33.57162
G1 X98.609 Y65.675 E33.68531
G1 X95.447 Y64.427 E33.79837
G1 X92.669 Y62.412 E33.91252
G1 X90.502 Y59.782 E34.02586
G1 X89.054 Y56.703 E34.13903
G1 X88.411 Y53.357 E34.25235
M205 X10 Y10
G0 F6000 X88.817 Y53.351
M205 X8 Y8
;TYPE:WALL-OUTER
G1 F1200 X89.023 Y50.027 E34.36312
G1 X90.043 Y46.881 E34.47312
G1 X91.822 Y44.081 E34.58345
G1 X94.228 Y41.821 E34.69324
G1 X97.129 Y40.223 E34.8034
G1 X100.322 Y39.404 E34.91304
G1 X103.641 Y39.402 E35.02343
G1 X106.875 Y40.224 E35.13441
G1 X109.757 Y41.81 E35.24383
G1 X112.178 Y44.08 E35.35421
G1 X113.953 Y46.874 E35.4643
G1 X114.98 Y50.031 E35.57472
G1 X115.186 Y53.331 E35.68469
G1 X114.567 Y56.572 E35.79444
G1 X113.161 Y59.564 E35.90439
G1 X111.041 Y62.131 E36.01512
G1 X108.372 Y64.069 E36.12483
G1 X105.275 Y65.292 E36.23558
G1 X102 Y65.701 E36.34535
G1 X98.709 Y65.287 E36.45567
G1 X95.625 Y64.066 E36.56599
G1 X92.946 Y62.118 E36.67616
G1 X90.839 Y59.569 E36.78616
G1 X89.434 Y56.579 E36.89604
G1 X88.817 Y53.351 E37.00534
M205 X10 Y10
G0 F6000 X88.829 Y53.152
G1 F1800 E31.00534
G1 F480 Z0.275
G0 F6000 X93.275 Y75.533 Z0.275
M205 X8 Y8
;TYPE:WALL-INNER
G1 F480 Z0.2
G1 F1800 E37.00534
G1 F1200 X93.55 Y75.264 E37.01814
G1 X94.021 Y75.1 E37.03473
G1 X121.483 Y75.103 E37.94812
G1 X121.752 Y75.163 E37.95728
G1 X122.138 Y75.424 E37.97278
G1 X122.4 Y75.975 E37.99307
G1 X122.4 Y134.03 E39.92399
G1 X122.143 Y134.57 E39.94388
G1 X121.852 Y134.793 E39.95608
G1 X121.481 Y134.897 E39.96889
G1 X94.015 Y134.9 E40.88241
G1 X93.751 Y134.838 E40.89143
G1 X93.394 Y134.61 E40.90552
G1 X93.182 Y134.299 E40.91804
G1 X93.105 Y134.004 E40.92818
G1 X93.103 Y76.018 E42.8568
G1 X93.275 Y75.533 E42.87392
M205 X10 Y10
G0 F6000 X93.575 Y75.808
M205 X8 Y8
G1 F1200 X93.824 Y75.566 E42.88547
G1 X94.032 Y75.503 E42.8927
G1 X121.557 Y75.502 E43.80818
G1 X121.843 Y75.694 E43.81964
G1 X122 Y76.024 E43.83179
G1 X122 Y133.98 E45.75942
G1 X121.846 Y134.302 E45.77129
G1 X121.449 Y134.499 E45.78603
G1 X94.026 Y134.496 E46.69812
G1 X93.793 Y134.417 E46.70631
G1 X93.503 Y134.088 E46.72089
G1 X93.501 Y76.051 E48.65121
G1 X93.575 Y75.808 E48.65966
M205 X10 Y10
G0 F6000 X94.051 Y75.905
M205 X8 Y8
;TYPE:WALL-OUTER
G1 F1200 X121.489 Y75.9 E49.57225
G1 X121.598 Y76.066 E49.57886
G1 X121.598 Y133.935 E51.50359
G1 X121.549 Y134.034 E51.50726
G1 X121.454 Y134.1 E51.51111
G1 X94.075 Y134.099 E52.42174
G1 X93.904 Y133.942 E52.42946
G1 X93.9 Y76.083 E54.35386
G1 X94.051 Y75.905 E54.36162
M205 X10 Y10
G0 F6000 X94.251 Y75.905
G1 F1800 E48.36162
G1 F480 Z0.275
G0 F6000 X80.019 Y92.216 Z0.275
M205 X8 Y8
;TYPE:WALL-INNER
G1 F480 Z0.2
G1 F1800 E54.36162
G1 F1200 X79.812 Y92.522 E54.37391
G1 X79.594 Y92.689 E54.38304
G1 X79.1 Y92.819 E54.40003
G1 X79.1 Y173.796 E57.09334
G1 X79.425 Y175.426 E57.14862
G1 X80.285 Y176.715 E57.20016
G1 X81.574 Y177.575 E57.2517
G1 X83.204 Y177.9 E57.30698
G1 X90.5 Y177.9 E57.54964
G1 X90.67 Y177.341 E57.56908
G1 X90.858 Y177.132 E57.57843
G1 X91.378 Y176.9 E57.59736
G1 X112.5 Y176.9 E58.29988
G1 X112.833 Y176.956 E58.31112
G1 X113.142 Y177.132 E58.32294
G1 X113.33 Y177.341 E58.33229
G1 X113.5 Y177.9 E58.35173
G1 X126.796 Y177.9 E58.79395
G1 X128.426 Y177.575 E58.84923
G1 X129.715 Y176.715 E58.90077
G1 X130.575 Y175.426 E58.95231
G1 X130.9 Y173.796 E59.00759
G1 X130.9 Y92.819 E61.7009
G1 X130.417 Y92.695 E61.71748
G1 X130.011 Y92.279 E61.73682
G1 X129.9 Y91.945 E61.74852
G1 X129.9 Y77.403 E62.23219
G1 X130.007 Y77.083 E62.24341
G1 X130.41 Y76.662 E62.2628
G1 X130.9 Y76.534 E62.27964
G1 X130.9 Y36.204 E63.62102
G1 X130.575 Y34.574 E63.67631
G1 X129.715 Y33.285 E63.72784
G1 X128.426 Y32.425 E63.77938
G1 X126.796 Y32.1 E63.83466
G1 X113.5 Y32.1 E64.27689
G1 X113.329 Y32.66 E64.29636
G1 X113.14 Y32.869 E64.30574
G1 X112.6 Y33.096 E64.32522
G1 X91.278 Y33.101 E65.03439
G1 X90.86 Y32.869 E65.05029
